static/assets/emoji/svg/1f1e7.svg

<svg enable-background="new 0 0 128 128" viewBox="0 0 128 128" xmlns="http://www.w3.org/2000/svg"><path d="m93.22 66.17c5.68-5.41 9.19-12.68 9.19-20.7 0-16.63-15.01-30.15-33.46-30.15h-37.87c-1.24 0-2.24 1-2.24 2.24v100.96c0 1.24 1 2.24 2.24 2.24h42.62c18.46 0 33.47-13.53 33.47-30.16 0-10.05-5.52-18.95-13.95-24.43zm-25.82-9.35h-13.99c-0.21 0-0.36-0.14-0.44-0.33-0.03-0.06-0.08-0.12-0.08-0.19v-20.3c0-0.07 0.05-0.13 0.08-0.19 0.08-0.18 0.23-0.33 0.44-0.33h13.99c5.61 0 10.18 4.78 10.18 10.66 0 5.89-4.57 10.68-10.18 10.68zm0.85 44.48h-14.76c-0.04 0-0.07-0.04-0.11-0.05-0.22-0.06-0.4-0.23-0.4-0.47v-23.64c0-0.24 0.18-0.41 0.4-0.47 0.05-0.01 0.07-0.05 0.11-0.05h14.75c0.28 0 0.56 0.02 0.83 0.05 5.84 0.47 10.46 5.79 10.46 12.29 0 6.48-4.6 11.8-10.43 12.29-0.27 0.02-0.56 0.05-0.85 0.05z" fill="#40C0E7"/></svg>

<svg viewBox="0 0 128 128" xmlns="http://www.w3.org/2000/svg"><path d="M93.22 66.17c5.68-5.41 9.19-12.68 9.19-20.7 0-16.63-15.01-30.15-33.46-30.15H31.08c-1.24 0-2.24 1-2.24 2.24v100.96c0 1.24 1 2.24 2.24 2.24H73.7c18.46 0 33.47-13.53 33.47-30.16 0-10.05-5.52-18.95-13.95-24.43zM67.4 56.82H53.41c-.21 0-.36-.14-.44-.33-.03-.06-.08-.12-.08-.19V36c0-.07.05-.13.08-.19.08-.18.23-.33.44-.33H67.4c5.61 0 10.18 4.78 10.18 10.66 0 5.89-4.57 10.68-10.18 10.68zm.85 44.48H53.49c-.04 0-.07-.04-.11-.05-.22-.06-.4-.23-.4-.47V77.14c0-.24.18-.41.4-.47.05-.01.07-.05.11-.05h14.75c.28 0 .56.02.83.05 5.84.47 10.46 5.79 10.46 12.29 0 6.48-4.6 11.8-10.43 12.29-.27.02-.56.05-.85.05z" fill="#40C0E7"/></svg>
